cartflows/admin-core/assets/images/downsell_step.svg

<svg width="200" height="259" viewBox="0 0 200 259" fill="none" xmlns="http://www.w3.org/2000/svg">
<rect x="0.5" y="0.5" width="199" height="258" rx="9.5" fill="white" stroke="#EFEFEF"/>
<path d="M0 10C0 4.47716 4.47715 0 10 0H190C195.523 0 200 4.47715 200 10V28.1474H0V10Z" fill="#E6EAED"/>
<ellipse cx="14" cy="14.0211" rx="4" ry="4.02105" fill="#FF3B30"/>
<ellipse cx="27" cy="14.0211" rx="4" ry="4.02105" fill="#FFCC00"/>
<ellipse cx="40" cy="14.0211" rx="4" ry="4.02105" fill="#4CD964"/>
<rect x="64" y="11" width="107" height="7" rx="1" fill="white"/>
<rect x="50" y="151" width="100" height="4" rx="1" fill="#2271B1"/>
<rect x="23" y="165" width="154" height="4" rx="1" fill="#EAEAEA"/>
<rect x="70" y="178" width="60" height="4" rx="1" fill="#EAEAEA"/>
<rect x="23" y="197" width="154" height="20" rx="2" fill="#2271B1"/>
<path d="M73.4007 210L73.8865 208.507H76.2484L76.7342 210H78.2171L75.9607 203.455H74.1773L71.9177 210H73.4007ZM74.2381 207.427L75.0435 204.95H75.0946L75.9 207.427H74.2381ZM80.9689 210.096C82.2761 210.096 83.0974 209.329 83.1614 208.201H81.8766C81.7967 208.725 81.4515 209.019 80.9849 209.019C80.3489 209.019 79.9366 208.485 79.9366 207.545C79.9366 206.619 80.3521 206.088 80.9849 206.088C81.4834 206.088 81.803 206.417 81.8766 206.906H83.1614C83.1038 205.772 82.2441 205.027 80.9625 205.027C79.4731 205.027 78.5527 206.059 78.5527 207.565C78.5527 209.057 79.4572 210.096 80.9689 210.096ZM86.2511 210.096C87.5583 210.096 88.3797 209.329 88.4436 208.201H87.1588C87.0789 208.725 86.7337 209.019 86.2671 209.019C85.6311 209.019 85.2188 208.485 85.2188 207.545C85.2188 206.619 85.6343 206.088 86.2671 206.088C86.7657 206.088 87.0853 206.417 87.1588 206.906H88.4436C88.3861 205.772 87.5263 205.027 86.2447 205.027C84.7554 205.027 83.8349 206.059 83.8349 207.565C83.8349 209.057 84.7394 210.096 86.2511 210.096ZM91.5525 210.096C92.767 210.096 93.5852 209.505 93.7769 208.594L92.5177 208.511C92.3803 208.885 92.0287 209.08 91.5749 209.08C90.8941 209.08 90.4627 208.629 90.4627 207.897V207.894H93.8057V207.52C93.8057 205.852 92.7958 205.027 91.4982 205.027C90.0536 205.027 89.1171 206.053 89.1171 207.568C89.1171 209.124 90.0408 210.096 91.5525 210.096ZM90.4627 207.05C90.4914 206.491 90.9165 206.043 91.5206 206.043C92.1118 206.043 92.5209 206.465 92.5241 207.05H90.4627ZM94.6942 211.841H96.0557V209.214H96.0973C96.2858 209.623 96.6981 210.08 97.4907 210.08C98.6093 210.08 99.4818 209.195 99.4818 207.552C99.4818 205.864 98.571 205.027 97.4939 205.027C96.6725 205.027 96.2794 205.516 96.0973 205.915H96.0365V205.091H94.6942V211.841ZM96.0269 207.545C96.0269 206.67 96.3977 206.11 97.0593 206.11C97.7336 206.11 98.0916 206.695 98.0916 207.545C98.0916 208.402 97.7272 208.996 97.0593 208.996C96.4041 208.996 96.0269 208.421 96.0269 207.545ZM103.001 205.091H102.077V203.915H100.716V205.091H100.044V206.114H100.716V208.67C100.709 209.632 101.364 210.109 102.352 210.067C102.703 210.054 102.953 209.984 103.09 209.939L102.876 208.926C102.809 208.939 102.665 208.971 102.537 208.971C102.266 208.971 102.077 208.869 102.077 208.491V206.114H103.001V205.091ZM112.011 206.727C112.011 204.586 110.682 203.365 108.946 203.365C107.201 203.365 105.881 204.586 105.881 206.727C105.881 208.859 107.201 210.089 108.946 210.089C110.682 210.089 112.011 208.869 112.011 206.727ZM110.608 206.727C110.608 208.114 109.95 208.865 108.946 208.865C107.939 208.865 107.284 208.114 107.284 206.727C107.284 205.34 107.939 204.589 108.946 204.589C109.95 204.589 110.608 205.34 110.608 206.727ZM115.651 205.091H114.676V204.762C114.676 204.429 114.81 204.234 115.209 204.234C115.372 204.234 115.539 204.27 115.647 204.305L115.887 203.282C115.718 203.231 115.344 203.148 114.925 203.148C114.001 203.148 113.314 203.669 113.314 204.736V205.091H112.621V206.114H113.314V210H114.676V206.114H115.651V205.091ZM119.122 205.091H118.147V204.762C118.147 204.429 118.282 204.234 118.681 204.234C118.844 204.234 119.01 204.27 119.119 204.305L119.359 203.282C119.189 203.231 118.815 203.148 118.397 203.148C117.473 203.148 116.786 203.669 116.786 204.736V205.091H116.092V206.114H116.786V210H118.147V206.114H119.122V205.091ZM122.015 210.096C123.23 210.096 124.048 209.505 124.24 208.594L122.981 208.511C122.843 208.885 122.492 209.08 122.038 209.08C121.357 209.08 120.926 208.629 120.926 207.897V207.894H124.269V207.52C124.269 205.852 123.259 205.027 121.961 205.027C120.516 205.027 119.58 206.053 119.58 207.568C119.58 209.124 120.504 210.096 122.015 210.096ZM120.926 207.05C120.954 206.491 121.379 206.043 121.983 206.043C122.575 206.043 122.984 206.465 122.987 207.05H120.926ZM125.157 210H126.519V207.223C126.519 206.619 126.96 206.203 127.561 206.203C127.749 206.203 128.008 206.235 128.136 206.277V205.069C128.014 205.04 127.845 205.021 127.708 205.021C127.158 205.021 126.707 205.34 126.528 205.947H126.477V205.091H125.157V210Z" fill="white"/>
<path d="M79.921 233.5H80.9973V231.695H81.7828L82.7473 233.5H83.9355L82.8542 231.521C83.4334 231.273 83.7541 230.768 83.7541 230.072C83.7541 229.06 83.0854 228.409 81.9295 228.409H79.921V233.5ZM80.9973 230.83V229.289H81.7232C82.3446 229.289 82.6454 229.565 82.6454 230.072C82.6454 230.577 82.3446 230.83 81.7282 230.83H80.9973ZM86.1734 233.575C87.118 233.575 87.7544 233.115 87.9035 232.406L86.9241 232.342C86.8172 232.632 86.5438 232.784 86.1908 232.784C85.6613 232.784 85.3257 232.434 85.3257 231.864V231.862H87.9259V231.571C87.9259 230.273 87.1404 229.632 86.1311 229.632C85.0075 229.632 84.2792 230.43 84.2792 231.608C84.2792 232.819 84.9976 233.575 86.1734 233.575ZM85.3257 231.206C85.3481 230.771 85.6787 230.423 86.1485 230.423C86.6084 230.423 86.9266 230.751 86.9291 231.206H85.3257ZM88.6169 229.682V233.672C88.6169 233.96 88.4951 234.104 88.1546 234.104C88.1098 234.104 88.07 234.104 88.0154 234.099V234.927C88.0924 234.929 88.1546 234.932 88.2291 234.932C89.129 234.932 89.6759 234.574 89.6759 233.689V229.682H88.6169ZM89.1439 229.19C89.4596 229.19 89.7181 228.949 89.7181 228.653C89.7181 228.359 89.4596 228.118 89.1439 228.118C88.8307 228.118 88.5722 228.359 88.5722 228.653C88.5722 228.949 88.8307 229.19 89.1439 229.19ZM92.2642 233.575C93.2088 233.575 93.8452 233.115 93.9943 232.406L93.0149 232.342C92.908 232.632 92.6346 232.784 92.2816 232.784C91.7521 232.784 91.4165 232.434 91.4165 231.864V231.862H94.0167V231.571C94.0167 230.273 93.2312 229.632 92.2219 229.632C91.0984 229.632 90.37 230.43 90.37 231.608C90.37 232.819 91.0884 233.575 92.2642 233.575ZM91.4165 231.206C91.4389 230.771 91.7695 230.423 92.2393 230.423C92.6992 230.423 93.0174 230.751 93.0199 231.206H91.4165ZM96.4329 233.575C97.4496 233.575 98.0884 232.978 98.1381 232.1H97.1388C97.0767 232.508 96.8082 232.737 96.4453 232.737C95.9506 232.737 95.63 232.322 95.63 231.591C95.63 230.87 95.9531 230.457 96.4453 230.457C96.8331 230.457 97.0817 230.713 97.1388 231.094H98.1381C98.0934 230.211 97.4247 229.632 96.4279 229.632C95.2695 229.632 94.5536 230.435 94.5536 231.606C94.5536 232.767 95.2571 233.575 96.4329 233.575ZM100.847 229.682H100.129V228.767H99.0697V229.682H98.5477V230.477H99.0697V232.466C99.0647 233.214 99.5743 233.585 100.342 233.552C100.616 233.542 100.81 233.488 100.917 233.453L100.75 232.665C100.698 232.675 100.586 232.7 100.487 232.7C100.275 232.7 100.129 232.62 100.129 232.327V230.477H100.847V229.682ZM107.855 230.955C107.855 229.289 106.821 228.339 105.471 228.339C104.114 228.339 103.087 229.289 103.087 230.955C103.087 232.613 104.114 233.57 105.471 233.57C106.821 233.57 107.855 232.62 107.855 230.955ZM106.764 230.955C106.764 232.033 106.252 232.618 105.471 232.618C104.688 232.618 104.179 232.033 104.179 230.955C104.179 229.876 104.688 229.292 105.471 229.292C106.252 229.292 106.764 229.876 106.764 230.955ZM110.686 229.682H109.928V229.426C109.928 229.167 110.032 229.016 110.343 229.016C110.47 229.016 110.599 229.043 110.683 229.07L110.87 228.275C110.738 228.235 110.447 228.17 110.122 228.17C109.403 228.17 108.869 228.576 108.869 229.406V229.682H108.329V230.477H108.869V233.5H109.928V230.477H110.686V229.682ZM113.386 229.682H112.628V229.426C112.628 229.167 112.732 229.016 113.043 229.016C113.17 229.016 113.299 229.043 113.384 229.07L113.57 228.275C113.438 228.235 113.147 228.17 112.822 228.17C112.103 228.17 111.569 228.576 111.569 229.406V229.682H111.029V230.477H111.569V233.5H112.628V230.477H113.386V229.682ZM115.636 233.575C116.581 233.575 117.217 233.115 117.366 232.406L116.387 232.342C116.28 232.632 116.007 232.784 115.654 232.784C115.124 232.784 114.789 232.434 114.789 231.864V231.862H117.389V231.571C117.389 230.273 116.603 229.632 115.594 229.632C114.47 229.632 113.742 230.43 113.742 231.608C113.742 232.819 114.46 233.575 115.636 233.575ZM114.789 231.206C114.811 230.771 115.142 230.423 115.611 230.423C116.071 230.423 116.389 230.751 116.392 231.206H114.789ZM118.08 233.5H119.139V231.34C119.139 230.87 119.482 230.547 119.949 230.547C120.096 230.547 120.297 230.572 120.397 230.604V229.664C120.302 229.642 120.17 229.627 120.063 229.627C119.636 229.627 119.285 229.876 119.146 230.348H119.106V229.682H118.08V233.5Z" fill="#A1A1A1"/>
<circle cx="104.542" cy="90.5946" r="38.7857" fill="white" stroke="#2271B1" stroke-miterlimit="1.86218" stroke-dasharray="2 3"/>
<circle cx="104.541" cy="90.5947" r="31.9048" fill="#F6FAFF"/>
<g clip-path="url(#clip0)">
<path d="M127.255 65.4744L123.453 69.2784V57.479C123.453 56.9845 123.257 56.5103 122.907 56.1607C122.557 55.8111 122.083 55.6147 121.589 55.6147C121.094 55.6147 120.62 55.8111 120.271 56.1607C119.921 56.5103 119.724 56.9845 119.724 57.479V69.2784L115.922 65.4744L115.922 65.4743C115.572 65.1244 115.098 64.9278 114.603 64.9278C114.108 64.9278 113.633 65.1244 113.283 65.4743C112.934 65.8242 112.737 66.2988 112.737 66.7937C112.737 67.2885 112.934 67.7631 113.283 68.113L120.269 75.0983C120.442 75.272 120.648 75.4097 120.874 75.5037C121.101 75.5977 121.344 75.6461 121.589 75.6461C121.834 75.6461 122.077 75.5977 122.303 75.5037C122.53 75.4097 122.736 75.272 122.909 75.0983L129.894 68.113C130.244 67.7631 130.441 67.2885 130.441 66.7937C130.441 66.2988 130.244 65.8242 129.894 65.4743C129.544 65.1244 129.07 64.9278 128.575 64.9278C128.08 64.9278 127.605 65.1244 127.255 65.4743L127.255 65.4744ZM139.518 65.6293C139.518 70.3845 137.629 74.9449 134.267 78.3073C130.904 81.6697 126.344 83.5586 121.589 83.5586C116.834 83.5586 112.273 81.6697 108.911 78.3073C105.548 74.9449 103.659 70.3845 103.659 65.6293C103.659 60.8742 105.548 56.3138 108.911 52.9514C112.273 49.589 116.834 47.7 121.589 47.7C126.344 47.7 130.904 49.589 134.267 52.9514C137.629 56.3138 139.518 60.8742 139.518 65.6293Z" fill="white" stroke="#2271B1" stroke-width="1.4"/>
</g>
<path d="M107.145 112.066V112.067C107.145 113.033 107.529 113.96 108.213 114.644C108.213 114.644 108.213 114.644 108.213 114.644L128.478 134.909L128.478 134.909C129.162 135.592 130.088 135.976 131.055 135.976C132.022 135.976 132.948 135.592 133.632 134.909L133.632 134.909L146.909 121.632L146.909 121.632C147.592 120.948 147.976 120.022 147.976 119.055C147.976 118.088 147.592 117.162 146.909 116.478L146.909 116.478L126.644 96.213C126.644 96.213 126.644 96.2129 126.644 96.2129C125.96 95.5293 125.033 95.1452 124.067 95.145H124.066H110.79C109.823 95.145 108.896 95.529 108.213 96.2126C107.529 96.8962 107.145 97.8233 107.145 98.79V112.066ZM121.62 106.028C121.62 106.98 121.242 107.894 120.568 108.568C119.894 109.242 118.98 109.62 118.028 109.62C117.075 109.62 116.161 109.242 115.487 108.568C114.814 107.894 114.435 106.98 114.435 106.028C114.435 105.075 114.814 104.161 115.487 103.487C116.161 102.813 117.075 102.435 118.028 102.435C118.98 102.435 119.894 102.813 120.568 103.487C121.242 104.161 121.62 105.075 121.62 106.028Z" fill="white" stroke="#2271B1" stroke-width="1.5"/>
<rect x="55" y="88.5273" width="36.3888" height="36.3888" rx="18.1944" fill="white"/>
<path d="M73.1942 91.5597C70.1955 91.5597 67.2641 92.449 64.7707 94.115C62.2773 95.781 60.3339 98.149 59.1864 100.919C58.0388 103.69 57.7385 106.739 58.3236 109.68C58.9086 112.621 60.3526 115.322 62.4731 117.443C64.5935 119.563 67.2951 121.007 70.2363 121.592C73.1774 122.177 76.226 121.877 78.9965 120.73C81.767 119.582 84.1349 117.639 85.801 115.145C87.467 112.652 88.3562 109.72 88.3562 106.722C88.3562 104.731 87.964 102.759 87.2021 100.919C86.4401 99.0799 85.3233 97.4085 83.9154 96.0006C82.5075 94.5927 80.836 93.4758 78.9965 92.7139C77.1569 91.9519 75.1853 91.5597 73.1942 91.5597ZM73.1942 118.851C70.7952 118.851 68.4501 118.14 66.4554 116.807C64.4607 115.474 62.906 113.58 61.9879 111.364C61.0699 109.147 60.8297 106.708 61.2977 104.355C61.7657 102.002 62.921 99.8412 64.6173 98.1448C66.3137 96.4485 68.4749 95.2932 70.8279 94.8252C73.1808 94.3572 75.6196 94.5974 77.836 95.5154C80.0524 96.4335 81.9468 97.9882 83.2796 99.9829C84.6124 101.978 85.3238 104.323 85.3238 106.722C85.3238 109.939 84.0459 113.024 81.7711 115.299C79.4964 117.573 76.4112 118.851 73.1942 118.851Z" fill="#2271B1"/>
<path d="M73.1944 105.206C70.162 105.206 70.162 104.25 70.162 103.689C70.162 103.128 71.2234 102.173 73.1944 102.173C75.1655 102.173 75.302 103.144 75.3171 103.689H78.3495C78.329 102.656 77.9575 101.661 77.2961 100.868C76.6348 100.074 75.7229 99.5291 74.7106 99.3227V97.6245H71.6782V99.2772C68.6458 99.7775 67.1296 101.733 67.1296 103.689C67.1296 105.387 67.9181 108.238 73.1944 108.238C76.2268 108.238 76.2268 109.269 76.2268 109.754C76.2268 110.239 75.2868 111.27 73.1944 111.27C70.4046 111.27 70.162 109.966 70.162 109.754H67.1296C67.1296 111.149 68.1303 113.62 71.6782 114.181V115.819H74.7106V114.181C77.743 113.666 79.2592 111.71 79.2592 109.754C79.2592 108.056 78.4708 105.206 73.1944 105.206Z" fill="#2271B1"/>
<defs>
<clipPath id="clip0">
<rect width="37.2586" height="37.2586" fill="white" transform="translate(102.959 47)"/>
</clipPath>
</defs>
</svg>

<svg width="200" height="259" fill="none" xmlns="http://www.w3.org/2000/svg"><rect x=".5" y=".5" width="199" height="258" rx="9.5" fill="#fff" stroke="#EFEFEF"/><path d="M0 10C0 4.477 4.477 0 10 0h180c5.523 0 10 4.477 10 10v18.147H0V10Z" fill="#E6EAED"/><ellipse cx="14" cy="14.021" rx="4" ry="4.021" fill="#FF3B30"/><ellipse cx="27" cy="14.021" rx="4" ry="4.021" fill="#FC0"/><ellipse cx="40" cy="14.021" rx="4" ry="4.021" fill="#4CD964"/><rect x="64" y="11" width="107" height="7" rx="1" fill="#fff"/><rect x="50" y="151" width="100" height="4" rx="1" fill="#2271B1"/><rect x="23" y="165" width="154" height="4" rx="1" fill="#EAEAEA"/><rect x="70" y="178" width="60" height="4" rx="1" fill="#EAEAEA"/><rect x="23" y="197" width="154" height="20" rx="2" fill="#2271B1"/><path d="m73.4 210 .486-1.493h2.362l.486 1.493h1.483l-2.256-6.545h-1.784L71.917 210h1.484Zm.838-2.573.805-2.477h.052l.805 2.477h-1.662Zm6.73 2.669c1.308 0 2.13-.767 2.193-1.895h-1.284c-.08.524-.425.818-.892.818-.636 0-1.048-.534-1.048-1.474 0-.926.415-1.457 1.048-1.457.498 0 .818.329.892.818h1.284c-.057-1.134-.917-1.879-2.198-1.879-1.49 0-2.41 1.032-2.41 2.538 0 1.492.904 2.531 2.416 2.531Zm5.283 0c1.307 0 2.129-.767 2.193-1.895h-1.285c-.08.524-.425.818-.892.818-.636 0-1.048-.534-1.048-1.474 0-.926.415-1.457 1.048-1.457.499 0 .818.329.892.818h1.285c-.058-1.134-.918-1.879-2.2-1.879-1.489 0-2.41 1.032-2.41 2.538 0 1.492.905 2.531 2.417 2.531Zm5.301 0c1.215 0 2.033-.591 2.225-1.502l-1.26-.083c-.137.374-.488.569-.942.569-.68 0-1.112-.451-1.112-1.183v-.003h3.343v-.374c0-1.668-1.01-2.493-2.308-2.493-1.444 0-2.38 1.026-2.38 2.541 0 1.556.923 2.528 2.434 2.528Zm-1.09-3.046a1.037 1.037 0 0 1 1.059-1.007c.59 0 1 .422 1.003 1.007h-2.061Zm4.232 4.791h1.362v-2.627h.041c.189.409.601.866 1.394.866 1.118 0 1.99-.885 1.99-2.528 0-1.688-.91-2.525-1.987-2.525-.822 0-1.215.489-1.397.888h-.06v-.824h-1.343v6.75Zm1.333-4.296c0-.875.37-1.435 1.032-1.435.675 0 1.033.585 1.033 1.435 0 .857-.365 1.451-1.033 1.451-.655 0-1.032-.575-1.032-1.451Zm6.974-2.454h-.924v-1.176h-1.361v1.176h-.672v1.023h.672v2.556c-.007.962.648 1.439 1.636 1.397.351-.013.601-.083.738-.128l-.214-1.013c-.067.013-.211.045-.339.045-.271 0-.46-.102-.46-.48v-2.377h.924v-1.023Zm9.01 1.636c0-2.141-1.329-3.362-3.065-3.362-1.745 0-3.065 1.221-3.065 3.362 0 2.132 1.32 3.362 3.065 3.362 1.736 0 3.065-1.22 3.065-3.362Zm-1.403 0c0 1.387-.658 2.138-1.662 2.138-1.007 0-1.662-.751-1.662-2.138s.655-2.138 1.662-2.138c1.004 0 1.662.751 1.662 2.138Zm5.043-1.636h-.975v-.329c0-.333.134-.528.533-.528.163 0 .33.036.438.071l.24-1.023a3.589 3.589 0 0 0-.962-.134c-.924 0-1.611.521-1.611 1.588v.355h-.693v1.023h.693V210h1.362v-3.886h.975v-1.023Zm3.471 0h-.975v-.329c0-.333.135-.528.534-.528.163 0 .329.036.438.071l.24-1.023a3.603 3.603 0 0 0-.962-.134c-.924 0-1.611.521-1.611 1.588v.355h-.694v1.023h.694V210h1.361v-3.886h.975v-1.023Zm2.893 5.005c1.215 0 2.033-.591 2.225-1.502l-1.259-.083c-.138.374-.489.569-.943.569-.681 0-1.112-.451-1.112-1.183v-.003h3.343v-.374c0-1.668-1.01-2.493-2.308-2.493-1.445 0-2.381 1.026-2.381 2.541 0 1.556.924 2.528 2.435 2.528Zm-1.089-3.046a1.036 1.036 0 0 1 1.057-1.007c.592 0 1.001.422 1.004 1.007h-2.061Zm4.231 2.95h1.362v-2.777c0-.604.441-1.02 1.042-1.02.188 0 .447.032.575.074v-1.208a2.033 2.033 0 0 0-.428-.048c-.55 0-1.001.319-1.18.926h-.051v-.856h-1.32V210Z" fill="#fff"/><path d="M79.921 233.5h1.076v-1.805h.786l.964 1.805h1.189l-1.082-1.979c.58-.248.9-.753.9-1.449 0-1.012-.669-1.663-1.825-1.663h-2.008v5.091Zm1.076-2.67v-1.541h.726c.622 0 .922.276.922.783 0 .505-.3.758-.917.758h-.73Zm5.176 2.745c.945 0 1.581-.46 1.73-1.169l-.979-.064c-.107.29-.38.442-.733.442-.53 0-.865-.35-.865-.92v-.002h2.6v-.291c0-1.298-.786-1.939-1.795-1.939-1.124 0-1.852.798-1.852 1.976 0 1.211.719 1.967 1.894 1.967Zm-.847-2.369a.806.806 0 0 1 .823-.783c.46 0 .778.328.78.783h-1.603Zm3.29-1.524v3.99c0 .288-.12.432-.461.432-.045 0-.085 0-.14-.005v.828c.077.002.14.005.214.005.9 0 1.447-.358 1.447-1.243v-4.007h-1.06Zm.528-.492c.316 0 .574-.241.574-.537 0-.294-.258-.535-.574-.535-.313 0-.572.241-.572.535 0 .296.259.537.572.537Zm3.12 4.385c.945 0 1.581-.46 1.73-1.169l-.98-.064c-.106.29-.38.442-.732.442-.53 0-.865-.35-.865-.92v-.002h2.6v-.291c0-1.298-.786-1.939-1.795-1.939-1.124 0-1.852.798-1.852 1.976 0 1.211.718 1.967 1.894 1.967Zm-.847-2.369a.806.806 0 0 1 .822-.783c.46 0 .778.328.78.783h-1.603Zm5.016 2.369c1.017 0 1.655-.597 1.705-1.475h-1c-.061.408-.33.637-.693.637-.494 0-.815-.415-.815-1.146 0-.721.323-1.134.815-1.134.388 0 .637.256.694.637h1c-.046-.883-.714-1.462-1.711-1.462-1.159 0-1.874.803-1.874 1.974 0 1.161.703 1.969 1.879 1.969Zm4.414-3.893h-.718v-.915h-1.06v.915h-.521v.795h.522v1.989c-.005.748.504 1.119 1.272 1.086.274-.01.468-.064.575-.099l-.167-.788c-.052.01-.164.035-.263.035-.212 0-.358-.08-.358-.373v-1.85h.718v-.795Zm7.008 1.273c0-1.666-1.034-2.616-2.384-2.616-1.357 0-2.384.95-2.384 2.616 0 1.658 1.027 2.615 2.384 2.615 1.35 0 2.384-.95 2.384-2.615Zm-1.091 0c0 1.078-.512 1.663-1.293 1.663-.783 0-1.292-.585-1.292-1.663 0-1.079.509-1.663 1.292-1.663.781 0 1.293.584 1.293 1.663Zm3.922-1.273h-.758v-.256c0-.259.104-.41.415-.41.127 0 .256.027.34.054l.187-.795a2.778 2.778 0 0 0-.748-.105c-.719 0-1.253.406-1.253 1.236v.276h-.54v.795h.54v3.023h1.059v-3.023h.758v-.795Zm2.7 0h-.758v-.256c0-.259.104-.41.415-.41.127 0 .256.027.341.054l.186-.795a2.778 2.778 0 0 0-.748-.105c-.719 0-1.253.406-1.253 1.236v.276h-.54v.795h.54v3.023h1.059v-3.023h.758v-.795Zm2.25 3.893c.945 0 1.581-.46 1.73-1.169l-.979-.064c-.107.29-.38.442-.733.442-.53 0-.865-.35-.865-.92v-.002h2.6v-.291c0-1.298-.786-1.939-1.795-1.939-1.124 0-1.852.798-1.852 1.976 0 1.211.718 1.967 1.894 1.967Zm-.847-2.369a.806.806 0 0 1 .822-.783c.46 0 .778.328.781.783h-1.603Zm3.291 2.294h1.059v-2.16c0-.47.343-.793.81-.793.147 0 .348.025.448.057v-.94a1.627 1.627 0 0 0-.334-.037c-.427 0-.778.249-.917.721h-.04v-.666h-1.026v3.818Z" fill="#A1A1A1"/><circle cx="104.542" cy="90.595" r="38.786" fill="#fff" stroke="#2271B1" stroke-miterlimit="1.862" stroke-dasharray="2 3"/><circle cx="104.541" cy="90.595" r="31.905" fill="#F6FAFF"/><g clip-path="url(#a)"><path d="m127.255 65.474-3.802 3.804V57.48a1.863 1.863 0 0 0-3.182-1.318c-.35.35-.547.823-.547 1.318v11.8l-3.802-3.805a1.865 1.865 0 1 0-2.639 2.639l6.986 6.985a1.865 1.865 0 0 0 2.64 0l6.985-6.985a1.866 1.866 0 1 0-2.639-2.639Zm12.263.155a17.93 17.93 0 0 1-35.859 0 17.927 17.927 0 0 1 17.93-17.929 17.93 17.93 0 0 1 17.929 17.93Z" fill="#fff" stroke="#2271B1" stroke-width="1.4"/></g><path d="M107.145 112.066v.001c0 .966.384 1.893 1.068 2.577l20.265 20.265a3.646 3.646 0 0 0 5.154 0l13.277-13.277a3.646 3.646 0 0 0 0-5.154l-20.265-20.265a3.647 3.647 0 0 0-2.577-1.068H110.79a3.642 3.642 0 0 0-3.645 3.645v13.276Zm14.475-6.038a3.592 3.592 0 1 1-7.185 0 3.592 3.592 0 0 1 7.185 0Z" fill="#fff" stroke="#2271B1" stroke-width="1.5"/><rect x="55" y="88.527" width="36.389" height="36.389" rx="18.194" fill="#fff"/><path d="M73.194 91.56a15.162 15.162 0 1 0 0 30.324 15.162 15.162 0 0 0 0-30.324Zm0 27.291a12.128 12.128 0 0 1-8.577-20.706 12.13 12.13 0 1 1 8.577 20.706Z" fill="#2271B1"/><path d="M73.194 105.206c-3.032 0-3.032-.956-3.032-1.517 0-.561 1.061-1.516 3.032-1.516s2.108.971 2.123 1.516h3.033a4.545 4.545 0 0 0-3.64-4.366v-1.698h-3.032v1.652c-3.032.5-4.548 2.456-4.548 4.412 0 1.698.788 4.549 6.064 4.549 3.033 0 3.033 1.031 3.033 1.516 0 .485-.94 1.516-3.033 1.516-2.79 0-3.032-1.304-3.032-1.516H67.13c0 1.395 1 3.866 4.548 4.427v1.638h3.033v-1.638c3.032-.515 4.548-2.471 4.548-4.427 0-1.698-.788-4.548-6.065-4.548Z" fill="#2271B1"/><defs><clipPath id="a"><path fill="#fff" transform="translate(102.959 47)" d="M0 0h37.259v37.259H0z"/></clipPath></defs></svg>
